X:18457
T:Waltz. CJF.027
M:3/4
L:1/8
Q:120
C: 
S: C.J.Fox MS, 1829/33, Beverley,E.Yorks.
R:Waltz
O:England
A:East Yorkshire
B:Kidson Coll.Mitchell Lib.M1805
Z:P J Headford 2000
K:D
fe|d2d2ag|f2f2d'c'|b2b2b2|b2z2(gf)|e2e2e2|e4fg|\
a2fdec|d2z2:|:!de|a2fdd'b|a2(fd)(eg)|
gfed bg|f2e2fg|!a2fdd'b|a2fdeg|gfedec|d2z2:|:!"Trio"a2|\
f2z2c'2|g2z2g2|e2z2a2|f2z2z2|B2B2B2|g6|
f2a2dc|d2z2:|:!A2|dcdef^g|aaaa b^g|.a.a.a.a b^g|a6|!
a^g=gfge|.d.d.d.d (ec)|.d.d.d.d (" D Capo"ec)|d2z2||


